app/assets/puntdeur-links-hwk.svg

<svg data-name="Layer 1" xmlns="http://www.w3.org/2000/svg" width="144" height="480" viewBox="0 0 144 480">
    <title>
        puntdeur-links-hwk
    </title>
    <path d="M0 168h144v144H0z" fill="#d9ebf7"/>
    <path d="M24 312H0m0-144h24m120 144h-24m0-144h24" fill="none" stroke="#9fceea" stroke-miterlimit="10" stroke-width="3"/>
    <path d="M24 312h96v12H24z" fill="#d9ebf7"/>
    <path d="M120 312H24v12h89.4z" fill="#d9ebf7"/>
    <path d="M114 324v-6h6v-6" fill="none" stroke="#9fceea" stroke-linecap="square" stroke-linejoin="round" stroke-width="3"/>
    <path d="M120 168H24v-12h89.4z" fill="#d9ebf7"/>
    <path d="M104.8 160.6l-24 80 24 80" fill="none" stroke="#fff" stroke-linecap="round" stroke-linejoin="round" stroke-width="9"/>
    <path d="M106.6 320.6l-24-80.5 24-80.6" fill="none" stroke="#ca005d" stroke-linecap="round" stroke-linejoin="round" stroke-width="5"/>
    <path d="M119 318l-24-78H85l24 78z" fill="#ffb612" stroke="#000" stroke-linejoin="round"/>
    <path d="M24 312v12h90" fill="none" stroke="#7d7d7d" stroke-linecap="square" stroke-linejoin="round" stroke-width="3"/>
    <path d="M119 162l-24 78H85l24-78z" fill="#ffb612" stroke="#000" stroke-linejoin="round"/>
    <circle cx="114" cy="318" r="6" stroke="#474747" stroke-miterlimit="10" stroke-width="3"/>
    <path d="M114 156v6h6v6" fill="none" stroke="#9fceea" stroke-linecap="square" stroke-linejoin="round" stroke-width="3"/>
    <path d="M24 168v-12h90" fill="none" stroke="#7d7d7d" stroke-linecap="square" stroke-linejoin="round" stroke-width="3"/>
    <circle cx="114" cy="162" r="6" stroke="#474747" stroke-miterlimit="10" stroke-width="3"/>
    <g style="isolation:isolate" fill="#ca005d">
        <path d="M42.9 420v-18.7h3.9v7.1h7.3v-7.1H58V420h-3.9v-8.4h-7.3v8.4zM64.3 401.3l2.4 10.7.6 3 .5-2.9 2.1-10.8H74l2.3 10.7.5 3 .6-2.9 2.5-10.8h4L78.6 420h-3.7l-2.3-10.9-.6-3.7-.7 3.7L69 420h-3.6l-5.3-18.7zM86.3 401.3h3.9v7.7l7.2-7.7h5l-7.6 7.7 8 11h-5l-5.8-8.2-1.8 1.9v6.3h-3.9z"/>
    </g>
</svg>

<svg id="b3cea410-a347-420b-89d7-92529d3a8333" data-name="Layer 1" xmlns="http://www.w3.org/2000/svg" width="144" height="480" viewBox="0 0 144 480">
  <title>puntdeur-links-hwk</title>
  <path d="M0,168H144V312H0Z" fill="#d9ebf7"/>
  <path d="M24,312H0M0,168H24M144,312H120m0-144h24" fill="none" stroke="#9fceea" stroke-miterlimit="10" stroke-width="3"/>
  <path d="M24,312h96v12H24Z" fill="#d9ebf7"/>
  <path d="M120,312H24v12h89.4Z" fill="#d9ebf7"/>
  <path d="M114,324v-6h6v-6" fill="none" stroke="#9fceea" stroke-linecap="square" stroke-linejoin="round" stroke-width="3"/>
  <path d="M120,168H24V156h89.4Z" fill="#d9ebf7"/>
  <path d="M104.8,160.6l-24,80,24,80" fill="none" stroke="#fff" stroke-linecap="round" stroke-linejoin="round" stroke-width="9"/>
  <path d="M106.6,320.6l-24-80.5,24-80.6" fill="none" stroke="#ca005d" stroke-linecap="round" stroke-linejoin="round" stroke-width="5"/>
  <path d="M119,318,95,240H85l24,78Z" fill="#ffb612" stroke="#000" stroke-linejoin="round"/>
  <path d="M24,312v12h90" fill="none" stroke="#7d7d7d" stroke-linecap="square" stroke-linejoin="round" stroke-width="3"/>
  <path d="M119,162,95,240H85l24-78Z" fill="#ffb612" stroke="#000" stroke-linejoin="round"/>
  <circle cx="114" cy="318" r="6" stroke="#474747" stroke-miterlimit="10" stroke-width="3"/>
  <path d="M114,156v6h6v6" fill="none" stroke="#9fceea" stroke-linecap="square" stroke-linejoin="round" stroke-width="3"/>
  <path d="M24,168V156h90" fill="none" stroke="#7d7d7d" stroke-linecap="square" stroke-linejoin="round" stroke-width="3"/>
  <circle cx="114" cy="162" r="6" stroke="#474747" stroke-miterlimit="10" stroke-width="3"/>
  <g id="e09b35ce-6a80-425f-bbe4-75f1ea433201" data-name="hwk">
    <text transform="translate(41 22.4)" font-size="26" fill="#ca005d" font-family="Helvetica-Bold, Helvetica" font-weight="700" style="isolation: isolate">HWK</text>
  </g>
</svg>
